src/travel-places/transport-ground/1F6B2.svg

<?xml version="1.0" encoding="UTF-8"?>
<svg id="emoji" xmlns="http://www.w3.org/2000/svg" viewBox="0 0 72 72">
  <g id="grid">
    <path d="m68,4v64H4V4h64Zm4-4H0v72h72V0Z" fill="#b3b3b3"/>
    <path d="m12.9,11h46.2c1.0486-.0007,1.8993.8488,1.9,1.8974v.0026h0v46.1c.0007,1.0486-.8488,1.8993-1.8974,1.9H12.9c-1.014.0354-1.8646-.758-1.9-1.772-.0015-.0427-.0015-.0854,0-.128h0V12.9c-.0007-1.0486.8488-1.8993,1.8974-1.9.0009,0,.0017,0,.0026,0Z" fill="none" stroke="#00a5ff" stroke-miterlimit="10" stroke-width=".1"/>
    <path d="m18.3,4h35.5c1.2383.0231,2.2234,1.0456,2.2004,2.2839,0,.0054-.0002.0108-.0004.0161v59.5c-.0141,1.2644-1.0356,2.2859-2.3,2.3H18.3c-1.2831-.0606-2.294-1.1155-2.3-2.4V6.3c-.0206-1.2497.9757-2.2794,2.2254-2.3.0249-.0004.0497-.0004.0746,0Z" fill="none" stroke="#00a5ff" stroke-miterlimit="10" stroke-width=".1"/>
    <path d="m68,18.3v35.5c-.0141,1.2644-1.0356,2.2859-2.3,2.3H6.3c-1.2831-.0606-2.294-1.1155-2.3-2.4V18.3c-.0206-1.2497.9757-2.2794,2.2254-2.3.0249-.0004.0497-.0004.0746,0h59.5c1.2383.0231,2.2234,1.0456,2.2004,2.2839,0,.0054-.0002.0108-.0004.0161Z" fill="none" stroke="#00a5ff" stroke-miterlimit="10" stroke-width=".1"/>
    <circle cx="36" cy="36" r="29" fill="none" stroke="#00a5ff" stroke-miterlimit="10" stroke-width=".1"/>
  </g>
  <g id="line">
    <g>
      <path d="m31,45c-.5209-.0314-.9686.3653-1,.8862-.0023.0379-.0023.0759,0,.1138,0,5.081-4.119,9.2-9.2,9.2-5.081,0-9.2-4.119-9.2-9.2,0-5.081,4.119-9.2,9.2-9.2h0l.2-2h-.2c-6.1856,0-11.2,5.0144-11.2,11.2s5.0144,11.2,11.2,11.2,11.2-5.0144,11.2-11.2c.0314-.5209-.3653-.9686-.8862-1-.0379-.0023-.0759-.0023-.1138,0Z"/>
      <path d="m52.8,34.8c-1.3293.0205-2.6465.2569-3.9.7l.9,1.8c.9703-.3117,1.981-.4802,3-.5,5.0808-.0477,9.2383,4.0324,9.286,9.1132s-4.0324,9.2383-9.1132,9.286c-4.9198.0462-9.0051-3.7865-9.2728-8.6992l-2-.1c.2461,6.1555,5.4356,10.9461,11.5912,10.7,6.1555-.2461,10.9461-5.4356,10.7-11.5912-.2399-6-5.1865-10.7334-11.1912-10.7088Z"/>
      <path d="m48,38.2l-.9-1.8c-2.8634,1.7037-4.8094,4.6043-5.3,7.9l2,.1c.478-2.5604,1.9995-4.8065,4.2-6.2Z"/>
      <line x1="23" y1="22" x2="27" y2="22" fill="none" stroke="#000" stroke-linecap="round" stroke-linejoin="round" stroke-width="2"/>
      <line x1="42" y1="25.7" x2="48" y2="25.7" fill="none" stroke="#000" stroke-linecap="round" stroke-linejoin="round" stroke-width="2"/>
    </g>
    <g>
      <line x1="21.1" y1="46" x2="22.8" y2="24.6" fill="none" stroke="#000" stroke-linecap="round" stroke-linejoin="round" stroke-width="2"/>
      <line x1="36" y1="45" x2="23" y2="30" fill="none" stroke="#000" stroke-linecap="round" stroke-linejoin="round" stroke-width="2"/>
      <line x1="45" y1="30" x2="53" y2="46" fill="none" stroke="#000" stroke-linecap="round" stroke-linejoin="round" stroke-width="2"/>
      <line x1="23" y1="30" x2="44" y2="30" fill="none" stroke="#000" stroke-linecap="round" stroke-linejoin="round" stroke-width="2"/>
      <line x1="46" y1="28.4" x2="36" y2="45" fill="none" stroke="#000" stroke-linecap="round" stroke-linejoin="round" stroke-width="2"/>
      <line x1="36" y1="45" x2="53" y2="46" fill="none" stroke="#000" stroke-linecap="round" stroke-linejoin="round" stroke-width="2"/>
    </g>
  </g>
  <g id="color">
    <circle cx="53.2623" cy="45.9184" r="8.5632" fill="#fff"/>
    <circle cx="20.8059" cy="46.1306" r="8.5632" fill="#fff"/>
    <polygon points="30.9117 33.2459 38.5365 33.3774 35.7758 39.5561 30.9117 33.2459" fill="#fff"/>
  </g>
  <g id="color-foreground">
    <line x1="21.1" y1="46" x2="22.8" y2="24.6" fill="none" stroke="#ea5a47" stroke-linecap="round" stroke-linejoin="round" stroke-width="2.1"/>
    <line x1="36" y1="45" x2="23" y2="30" fill="none" stroke="#ea5a47" stroke-linecap="round" stroke-linejoin="round" stroke-width="2.1"/>
    <line x1="45" y1="30" x2="53" y2="46" fill="none" stroke="#ea5a47" stroke-linecap="round" stroke-linejoin="round" stroke-width="2.1"/>
    <line x1="23" y1="30" x2="44" y2="30" fill="none" stroke="#ea5a47" stroke-linecap="round" stroke-linejoin="round" stroke-width="2.1"/>
    <line x1="46" y1="28.4" x2="36" y2="45" fill="none" stroke="#ea5a47" stroke-linecap="round" stroke-linejoin="round" stroke-width="2.1"/>
    <line x1="36" y1="45" x2="53" y2="46" fill="none" stroke="#ea5a47" stroke-linecap="round" stroke-linejoin="round" stroke-width="2.1"/>
  </g>
</svg>

<svg id="emoji" viewBox="0 0 72 72" xmlns="http://www.w3.org/2000/svg">
  <g id="grid">
    <path fill="#b3b3b3" d="M68,4V68H4V4Zm4-4H0V72H72Z"/>
    <path fill="none" stroke="#00a5ff" stroke-miterlimit="10" stroke-width="0.1" d="M12.9,11H59.1A1.8987,1.8987,0,0,1,61,12.9h0V59a1.8987,1.8987,0,0,1-1.9,1.9H12.9A1.8371,1.8371,0,0,1,11,59h0V12.9A1.8987,1.8987,0,0,1,12.9,11Z"/>
    <path fill="none" stroke="#00a5ff" stroke-miterlimit="10" stroke-width="0.1" d="M18.3,4H53.8A2.2425,2.2425,0,0,1,56,6.3V65.8a2.3261,2.3261,0,0,1-2.3,2.3H18.3A2.4139,2.4139,0,0,1,16,65.7V6.3A2.263,2.263,0,0,1,18.3,4Z"/>
    <path fill="none" stroke="#00a5ff" stroke-miterlimit="10" stroke-width="0.1" d="M68,18.3V53.8a2.3261,2.3261,0,0,1-2.3,2.3H6.3A2.4139,2.4139,0,0,1,4,53.7V18.3A2.263,2.263,0,0,1,6.3,16H65.8A2.2425,2.2425,0,0,1,68,18.3Z"/>
    <circle cx="36" cy="36" r="29" fill="none" stroke="#00a5ff" stroke-miterlimit="10" stroke-width="0.1"/>
  </g>
  <g id="line">
    <g>
      <path d="M31,45a.9448.9448,0,0,0-1,1,9.2,9.2,0,1,1-9.2-9.2h0l.2-2h-.2A11.2,11.2,0,1,0,32,46,.9448.9448,0,0,0,31,45Z"/>
      <path d="M52.8,34.8a12.2713,12.2713,0,0,0-3.9.7l.9,1.8a10.4735,10.4735,0,0,1,3-.5,9.2,9.2,0,1,1-9.1,9.7l-2-.1A11.1545,11.1545,0,1,0,52.8,34.8Z"/>
      <path d="M48,38.2l-.9-1.8a11.0932,11.0932,0,0,0-5.3,7.9l2,.1A9.3751,9.3751,0,0,1,48,38.2Z"/>
      <line x1="23" x2="27" y1="22" y2="22" fill="none" stroke="#000" stroke-linecap="round" stroke-linejoin="round" stroke-width="2"/>
      <line x1="42" x2="48" y1="25.7" y2="25.7" fill="none" stroke="#000" stroke-linecap="round" stroke-linejoin="round" stroke-width="2"/>
    </g>
    <g>
      <line x1="21.1" x2="22.8" y1="46" y2="24.6" fill="none" stroke="#000" stroke-linecap="round" stroke-linejoin="round" stroke-width="2"/>
      <line x1="36" x2="23" y1="45" y2="30" fill="none" stroke="#000" stroke-linecap="round" stroke-linejoin="round" stroke-width="2"/>
      <line x1="45" x2="53" y1="30" y2="46" fill="none" stroke="#000" stroke-linecap="round" stroke-linejoin="round" stroke-width="2"/>
      <line x1="23" x2="44" y1="30" y2="30" fill="none" stroke="#000" stroke-linecap="round" stroke-linejoin="round" stroke-width="2"/>
      <line x1="46" x2="36" y1="28.4" y2="45" fill="none" stroke="#000" stroke-linecap="round" stroke-linejoin="round" stroke-width="2"/>
      <line x1="36" x2="53" y1="45" y2="46" fill="none" stroke="#000" stroke-linecap="round" stroke-linejoin="round" stroke-width="2"/>
    </g>
  </g>
  <g id="color"/>
  <g id="color-foreground">
    <line x1="21.1" x2="22.8" y1="46" y2="24.6" fill="none" stroke="#ea5a47" stroke-linecap="round" stroke-linejoin="round" stroke-width="2.1"/>
    <line x1="36" x2="23" y1="45" y2="30" fill="none" stroke="#ea5a47" stroke-linecap="round" stroke-linejoin="round" stroke-width="2.1"/>
    <line x1="45" x2="53" y1="30" y2="46" fill="none" stroke="#ea5a47" stroke-linecap="round" stroke-linejoin="round" stroke-width="2.1"/>
    <line x1="23" x2="44" y1="30" y2="30" fill="none" stroke="#ea5a47" stroke-linecap="round" stroke-linejoin="round" stroke-width="2.1"/>
    <line x1="46" x2="36" y1="28.4" y2="45" fill="none" stroke="#ea5a47" stroke-linecap="round" stroke-linejoin="round" stroke-width="2.1"/>
    <line x1="36" x2="53" y1="45" y2="46" fill="none" stroke="#ea5a47" stroke-linecap="round" stroke-linejoin="round" stroke-width="2.1"/>
  </g>
</svg>
